X: 19
T:Stolen Purse, The
M:6/8
L:1/8
S:Breathnach, crne 1
R:Jig
K:G
ABG AGA|BGE G3 |ABA GBd|egd edB|ABG AGA|BGE G2 D|GBA G2 B|dBG BdB :|
|:GBd gfg|gba g3 |GBd gfg|egd edB|GBd gfg|gba g3 |abg age|egd edB :|
